img/hall.svg

<svg width="97" height="88" viewBox="0 0 97 88" fill="none" xmlns="http://www.w3.org/2000/svg">
<path d="M12 79V79C6.47715 79 2 74.5247 2 69.0019C2 43.9417 2 7.0966 2 5C2 2.6 4.66667 2 6 2C13.0845 2 22.0524 2 31.5 2M12 79L8 86.5M12 79H31.5M84 79H85C90.5228 79 95 74.5228 95 69V5.5C95 4.33333 94.3 2 91.5 2C90.2502 2 78.5278 2 63.5 2M84 79L87 87M84 79H63.5M31.5 2V79M31.5 2C42.2333 2 53.5859 2 63.5 2M31.5 79H63.5M63.5 79V2M70.5 38.5V43.5M25 38.5V43.5M39 40.5L46 33.5M39 48L57.5 31.5M39 73L57.5 56" stroke="#FFE602" stroke-width="3"/>
</svg>

<svg width="97" height="88" fill="none" xmlns="http://www.w3.org/2000/svg"><path d="M12 79c-5.523 0-10-4.475-10-9.998V5c0-2.4 2.667-3 4-3h25.5M12 79l-4 7.5m4-7.5h19.5M84 79h1c5.523 0 10-4.477 10-10V5.5c0-1.167-.7-3.5-3.5-3.5h-28M84 79l3 8m-3-8H63.5m-32-77v77m0-77h32m-32 77h32m0 0V2m7 36.5v5m-45.5-5v5m14-3l7-7M39 48l18.5-16.5M39 73l18.5-17" stroke="#E73087" stroke-width="3"/></svg>
